images/faktory-logo.svg

<svg height="84" viewBox="0 0 283 84" width="283" xmlns="http://www.w3.org/2000/svg"><g fill="none" fill-rule="evenodd"><path d="m92.2234637 46.9441341v25.9329609h8.7262573v-25.9329609h6.022346v-5.8379888h-6.022346v-1.905028c0-1.3109935.256049-2.243014.768156-2.7960894s1.362192-.8296089 2.550279-.8296089c1.106151 0 2.171317.0614519 3.195531.1843575v-6.5139664c-.737434-.0409686-1.49534-.0921785-2.273743-.1536313-.778402-.0614529-1.556793-.0921788-2.335195-.0921788-3.564264 0-6.2271797.9012945-7.9888272 2.7039106-1.7616476 1.8026161-2.6424581 4.1173043-2.6424581 6.9441341v2.4581006h-5.2234637v5.8379888zm15.8854753 3.9329609c.122905-2.0484274.635004-3.7485966 1.536312-5.1005587s2.048411-2.4376123 3.441341-3.2569832c1.392931-.819371 2.959954-1.403164 4.701117-1.7513967 1.741164-.3482326 3.492543-.5223463 5.25419-.5223463 1.597774 0 3.216007.1126618 4.854749.3379888s3.134071.6657323 4.486034 1.321229c1.351962.6554968 2.458096 1.5670333 3.318435 2.7346369.86034 1.1676036 1.290503 2.7141431 1.290503 4.6396648v16.5307263c0 1.4338991.081936 2.8063249.24581 4.1173184s.45065 2.2942239.860335 2.9497207h-8.849162c-.163874-.4916226-.29702-.9934798-.399441-1.5055866-.102421-.5121069-.174115-1.034448-.215084-1.5670391-1.39293 1.4338991-3.031648 2.4376135-4.916201 3.0111732-1.884553.5735596-3.810046.8603352-5.776536.8603352-1.515836 0-2.92923-.1843557-4.240224-.5530727-1.310993-.3687169-2.458095-.942268-3.44134-1.7206704-.983246-.7784024-1.751394-1.7616328-2.30447-2.9497206-.553075-1.1880879-.829609-2.6014816-.829609-4.2402235 0-1.8026161.317502-3.2877037.952514-4.4553073.635013-1.1676036 1.454371-2.099624 2.458101-2.7960893 1.003729-.6964654 2.150831-1.2188065 3.441341-1.5670392 1.290509-.3482326 2.591241-.6247662 3.902234-.8296089 1.310994-.2048427 2.601484-.3687145 3.871509-.4916201s2.396643-.3072613 3.379888-.5530726 1.761636-.6042807 2.335195-1.075419c.57356-.4711383.839852-1.1573512.798883-2.0586592 0-.9422766-.15363-1.6899414-.460894-2.2430168s-.716943-.9832387-1.22905-1.2905028-1.106142-.5121038-1.782123-.6145251c-.675981-.1024214-1.403162-.1536313-2.181564-.1536313-1.720679 0-3.072621.3687114-4.055866 1.1061452-.983245.7374339-1.556796 1.9664719-1.72067 3.6871509zm20.156424 6.4525139c-.368717.3277484-.829606.583798-1.382681.7681565-.553076.1843584-1.147111.3379882-1.782123.4608938-.635013.1229057-1.300742.2253255-1.997207.3072626s-1.39292.1843569-2.089386.3072626c-.655496.1229056-1.300741.2867773-1.935754.4916201-.635012.2048427-1.188079.4813763-1.659218.8296089-.471138.3482327-.850091.7886379-1.136871 1.3212291-.28678.5325911-.430168 1.208562-.430168 2.0279329 0 .7784024.143388 1.4338893.430168 1.9664805.28678.5325911.675975.9525124 1.167598 1.2597765.491622.3072641 1.065173.5223458 1.72067.6452514s1.331468.1843575 2.027933.1843575c1.720679 0 3.052137-.2867755 3.994413-.8603352.942277-.5735596 1.638732-1.2597725 2.089386-2.0586592.450654-.7988866.727187-1.6080033.829609-2.4273743.102421-.8193709.153631-1.4748579.153631-1.9664804zm12.444134-28.3296089h8.726257v23.5363128l11-11.4301675h10.324023l-11.983241 11.6759776 13.335196 20.0949721h-10.569833l-8.726257-14.1955308-3.379888 3.2569833v10.9385475h-8.726257zm44.768157 12.1061453h6.391061v5.8379888h-6.391061v15.7318436c0 1.4748677.245807 2.4580981.73743 2.9497206.491622.4916226 1.474853.7374302 2.94972.7374302.491623 0 .962754-.020484 1.413408-.0614525.450654-.0409686.880818-.1024205 1.290503-.1843576v6.7597766c-.737434.1229056-1.556792.2048415-2.4581.24581-.901309.0409686-1.782119.0614525-2.642459.0614525-1.351962 0-2.63221-.0921778-3.840782-.2765363-1.208572-.1843584-2.273738-.5428278-3.19553-1.075419-.921793-.5325911-1.648974-1.2904978-2.181565-2.273743-.532591-.9832451-.798882-2.273735-.798882-3.8715084v-18.7430167h-5.284917v-5.8379888h5.284917v-9.5251397h8.726257zm16.00838 15.9162011c0 1.2700249.122903 2.5093049.368715 3.7178771.245811 1.2085721.665732 2.2942223 1.259776 3.2569832s1.382677 1.7309096 2.365922 2.3044693c.983245.5735596 2.212283.8603352 3.687151.8603352 1.474867 0 2.714147-.2867756 3.717877-.8603352 1.003729-.5735597 1.802604-1.3417084 2.396648-2.3044693s1.013965-2.0484111 1.259776-3.2569832c.245812-1.2085722.368716-2.4478522.368716-3.7178771 0-1.270025-.122904-2.519547-.368716-3.7486034-.245811-1.2290564-.665732-2.3147066-1.259776-3.2569832s-1.392919-1.7104254-2.396648-2.3044693c-1.00373-.5940439-2.24301-.8910614-3.717877-.8910614-1.474868 0-2.703906.2970175-3.687151.8910614s-1.771878 1.3621927-2.365922 2.3044693-1.013965 2.0279268-1.259776 3.2569832c-.245812 1.2290564-.368715 2.4785784-.368715 3.7486034zm-8.726257 0c0-2.54005.389195-4.8444962 1.167597-6.9134079.778403-2.0689116 1.884537-3.8305327 3.318436-5.2849162 1.433899-1.4543834 3.154552-2.5810015 5.162011-3.3798882s4.260695-1.198324 6.759777-1.198324c2.499081 0 4.762559.3994373 6.790503 1.198324 2.027943.7988867 3.758838 1.9255048 5.192737 3.3798882 1.433899 1.4543835 2.540033 3.2160046 3.318436 5.2849162.778402 2.0689117 1.167598 4.3733579 1.167598 6.9134079 0 2.5400499-.389196 4.8342542-1.167598 6.8826815-.778403 2.0484274-1.884537 3.7998065-3.318436 5.25419-1.433899 1.4543834-3.164794 2.5707596-5.192737 3.349162-2.027944.7784024-4.291422 1.1675978-6.790503 1.1675978-2.499082 0-4.752318-.3891954-6.759777-1.1675978s-3.728112-1.8947786-5.162011-3.349162c-1.433899-1.4543835-2.540033-3.2057626-3.318436-5.25419-.778402-2.0484273-1.167597-4.3426316-1.167597-6.8826815zm36.226257-15.9162011h8.296089v5.8994413h.122905c.409685-.9832451.962753-1.8947817 1.659218-2.7346369s1.49534-1.556794 2.396648-2.150838c.901308-.5940439 1.864054-1.0549332 2.888268-1.3826815 1.024214-.3277484 2.08938-.4916201 3.195531-.4916201.573559 0 1.208562.1024198 1.905028.3072625v8.1117319c-.409686-.0819371-.901301-.153631-1.474861-.2150838-.573559-.0614529-1.126626-.0921788-1.659218-.0921788-1.597773 0-2.949715.2662916-4.055865.7988827-1.106151.5325911-1.997204 1.2597719-2.673185 2.1815642s-1.157354 1.9972006-1.444134 3.226257-.430167 2.5605143-.430167 3.9944134v14.3184358h-8.726257zm40.343575 35.7039106c-.942277 2.5810185-2.253251 4.4245754-3.932961 5.5307262s-4.014883 1.6592179-7.005587 1.6592179c-.901308 0-1.79236-.0307259-2.673184-.0921788-.880824-.0614528-1.771876-.1331467-2.673184-.2150838v-7.1899441c.819371.0819371 1.659213.163873 2.519553.2458101.860339.081937 1.720666.102421 2.581005.0614525 1.14712-.1229057 1.997204-.5735529 2.55028-1.3519553.553075-.7784024.829609-1.638729.829609-2.5810056 0-.6964653-.122904-1.3519523-.368715-1.9664805l-11.122905-29.8044692h9.279329l7.189944 21.7541899h.122905l6.944134-21.7541899h9.03352z" fill="#666"/><path d="m57.2661615 30.0690504 17.7338385 9.9309496v33.1632653l-20.8333333 1.6666667-54.1666667-1.6666667v-33.1632653l26.0257711-5.6055507 1.0575622-28.20165867c.5766342-.79519375 1.9655231-1.19279063 4.1666667-1.19279063s3.5900325.39759688 4.1666667 1.19279063l.9738469 25.96925257 9.6763036-2.0841269 1.155405-28.88512567c.6150765-.79519375 2.096558-1.19279063 4.4444445-1.19279063s3.8293679.39759688 4.4444444 1.19279063z" fill="#000"/><g fill="#f8ac3e" transform="translate(6.666667 39.166667)"><path d="m30.0833333 5.53718887c.4030958-3.07015492 2.1183736-4.85864598 5.1458334-5.36547318s4.7427376.78193376 5.1458333 3.86628287v23.53326144l-10.2916667.1381533z"/><path d="m0 9.84123896c0-2.36078858 1.31944444-3.77688863 3.95833333-4.24830012 2.63888889-.4714115 3.95833334.58027016 3.95833334 3.15504498v19.23938308l-7.91666667.1288527z"/><path d="m14.25 7.85045071c.1930215-2.69683816 1.6444104-4.2785473 4.3541667-4.74512741 2.7097562-.46658011 4.1611451.68461396 4.3541666 3.4535822v21.2377401l-8.7083333.1122266z"/></g></g></svg>

<?xml version="1.0" encoding="UTF-8"?>
<svg width="283px" height="84px" viewBox="0 0 283 84" version="1.1" xmlns="http://www.w3.org/2000/svg" xmlns:xlink="http://www.w3.org/1999/xlink">
    <!-- Generator: Sketch 46.2 (44496) - http://www.bohemiancoding.com/sketch -->
    <title>faktory-logotype-busy</title>
    <desc>Created with Sketch.</desc>
    <defs></defs>
    <g id="System" stroke="none" stroke-width="1" fill="none" fill-rule="evenodd">
        <g id="Status-Indicator" transform="translate(-247.000000, -125.000000)">
            <g id="faktory-logotype-busy" transform="translate(247.000000, 125.000000)">
                <path d="M92.2234637,46.9441341 L92.2234637,72.877095 L100.949721,72.877095 L100.949721,46.9441341 L106.972067,46.9441341 L106.972067,41.1061453 L100.949721,41.1061453 L100.949721,39.2011173 C100.949721,37.8901238 101.20577,36.9581033 101.717877,36.4050279 C102.229984,35.8519525 103.080069,35.575419 104.268156,35.575419 C105.374307,35.575419 106.439473,35.6368709 107.463687,35.7597765 L107.463687,29.2458101 C106.726253,29.2048415 105.968347,29.1536316 105.189944,29.0921788 C104.411542,29.0307259 103.633151,29 102.854749,29 C99.290485,29 96.6275693,29.9012945 94.8659218,31.7039106 C93.1042742,33.5065267 92.2234637,35.8212149 92.2234637,38.6480447 L92.2234637,41.1061453 L87,41.1061453 L87,46.9441341 L92.2234637,46.9441341 Z M108.108939,50.877095 C108.231844,48.8286676 108.743943,47.1284984 109.645251,45.7765363 C110.546559,44.4245742 111.693662,43.338924 113.086592,42.5195531 C114.479523,41.7001821 116.046546,41.1163891 117.787709,40.7681564 C119.528873,40.4199238 121.280252,40.2458101 123.041899,40.2458101 C124.639673,40.2458101 126.257906,40.3584719 127.896648,40.5837989 C129.53539,40.8091259 131.030719,41.2495312 132.382682,41.9050279 C133.734644,42.5605247 134.840778,43.4720612 135.701117,44.6396648 C136.561457,45.8072684 136.99162,47.3538079 136.99162,49.2793296 L136.99162,65.8100559 C136.99162,67.243955 137.073556,68.6163808 137.23743,69.9273743 C137.401304,71.2383678 137.68808,72.2215982 138.097765,72.877095 L129.248603,72.877095 C129.084729,72.3854724 128.951583,71.8836152 128.849162,71.3715084 C128.746741,70.8594015 128.675047,70.3370604 128.634078,69.8044693 C127.241148,71.2383684 125.60243,72.2420828 123.717877,72.8156425 C121.833324,73.3892021 119.907831,73.6759777 117.941341,73.6759777 C116.425505,73.6759777 115.012111,73.491622 113.701117,73.122905 C112.390124,72.7541881 111.243022,72.180637 110.259777,71.4022346 C109.276531,70.6238322 108.508383,69.6406018 107.955307,68.452514 C107.402232,67.2644261 107.125698,65.8510324 107.125698,64.2122905 C107.125698,62.4096744 107.4432,60.9245868 108.078212,59.7569832 C108.713225,58.5893796 109.532583,57.6573592 110.536313,56.9608939 C111.540042,56.2644285 112.687144,55.7420874 113.977654,55.3938547 C115.268163,55.0456221 116.568895,54.7690885 117.879888,54.5642458 C119.190882,54.3594031 120.481372,54.1955313 121.751397,54.0726257 C123.021422,53.9497201 124.14804,53.7653644 125.131285,53.5195531 C126.11453,53.2737418 126.892921,52.9152724 127.46648,52.4441341 C128.04004,51.9729958 128.306332,51.2867829 128.265363,50.3854749 C128.265363,49.4431983 128.111733,48.6955335 127.804469,48.1424581 C127.497205,47.5893827 127.087526,47.1592194 126.575419,46.8519553 C126.063312,46.5446912 125.469277,46.3398515 124.793296,46.2374302 C124.117315,46.1350088 123.390134,46.0837989 122.611732,46.0837989 C120.891053,46.0837989 119.539111,46.4525103 118.555866,47.1899441 C117.572621,47.927378 116.99907,49.156416 116.835196,50.877095 L108.108939,50.877095 Z M128.265363,57.3296089 C127.896646,57.6573573 127.435757,57.9134069 126.882682,58.0977654 C126.329606,58.2821238 125.735571,58.4357536 125.100559,58.5586592 C124.465546,58.6815649 123.799817,58.7839847 123.103352,58.8659218 C122.406887,58.9478589 121.710432,59.0502787 121.013966,59.1731844 C120.35847,59.29609 119.713225,59.4599617 119.078212,59.6648045 C118.4432,59.8696472 117.890133,60.1461808 117.418994,60.4944134 C116.947856,60.8426461 116.568903,61.2830513 116.282123,61.8156425 C115.995343,62.3482336 115.851955,63.0242045 115.851955,63.8435754 C115.851955,64.6219778 115.995343,65.2774647 116.282123,65.8100559 C116.568903,66.342647 116.958098,66.7625683 117.449721,67.0698324 C117.941343,67.3770965 118.514894,67.5921782 119.170391,67.7150838 C119.825888,67.8379894 120.501859,67.8994413 121.198324,67.8994413 C122.919003,67.8994413 124.250461,67.6126658 125.192737,67.0391061 C126.135014,66.4655465 126.831469,65.7793336 127.282123,64.9804469 C127.732777,64.1815603 128.00931,63.3724436 128.111732,62.5530726 C128.214153,61.7337017 128.265363,61.0782147 128.265363,60.5865922 L128.265363,57.3296089 Z M140.709497,29 L149.435754,29 L149.435754,52.5363128 L160.435754,41.1061453 L170.759777,41.1061453 L158.776536,52.7821229 L172.111732,72.877095 L161.541899,72.877095 L152.815642,58.6815642 L149.435754,61.9385475 L149.435754,72.877095 L140.709497,72.877095 L140.709497,29 Z M185.477654,41.1061453 L191.868715,41.1061453 L191.868715,46.9441341 L185.477654,46.9441341 L185.477654,62.6759777 C185.477654,64.1508454 185.723461,65.1340758 186.215084,65.6256983 C186.706706,66.1173209 187.689937,66.3631285 189.164804,66.3631285 C189.656427,66.3631285 190.127558,66.3426445 190.578212,66.301676 C191.028866,66.2607074 191.45903,66.1992555 191.868715,66.1173184 L191.868715,72.877095 C191.131281,73.0000006 190.311923,73.0819365 189.410615,73.122905 C188.509306,73.1638736 187.628496,73.1843575 186.768156,73.1843575 C185.416194,73.1843575 184.135946,73.0921797 182.927374,72.9078212 C181.718802,72.7234628 180.653636,72.3649934 179.731844,71.8324022 C178.810051,71.2998111 178.08287,70.5419044 177.550279,69.5586592 C177.017688,68.5754141 176.751397,67.2849242 176.751397,65.6871508 L176.751397,46.9441341 L171.46648,46.9441341 L171.46648,41.1061453 L176.751397,41.1061453 L176.751397,31.5810056 L185.477654,31.5810056 L185.477654,41.1061453 Z M201.486034,57.0223464 C201.486034,58.2923713 201.608937,59.5316513 201.854749,60.7402235 C202.10056,61.9487956 202.520481,63.0344458 203.114525,63.9972067 C203.708569,64.9599676 204.497202,65.7281163 205.480447,66.301676 C206.463692,66.8752356 207.69273,67.1620112 209.167598,67.1620112 C210.642465,67.1620112 211.881745,66.8752356 212.885475,66.301676 C213.889204,65.7281163 214.688079,64.9599676 215.282123,63.9972067 C215.876167,63.0344458 216.296088,61.9487956 216.541899,60.7402235 C216.787711,59.5316513 216.910615,58.2923713 216.910615,57.0223464 C216.910615,55.7523214 216.787711,54.5027994 216.541899,53.273743 C216.296088,52.0446866 215.876167,50.9590364 215.282123,50.0167598 C214.688079,49.0744832 213.889204,48.3063344 212.885475,47.7122905 C211.881745,47.1182466 210.642465,46.8212291 209.167598,46.8212291 C207.69273,46.8212291 206.463692,47.1182466 205.480447,47.7122905 C204.497202,48.3063344 203.708569,49.0744832 203.114525,50.0167598 C202.520481,50.9590364 202.10056,52.0446866 201.854749,53.273743 C201.608937,54.5027994 201.486034,55.7523214 201.486034,57.0223464 Z M192.759777,57.0223464 C192.759777,54.4822964 193.148972,52.1778502 193.927374,50.1089385 C194.705777,48.0400269 195.811911,46.2784058 197.24581,44.8240223 C198.679709,43.3696389 200.400362,42.2430208 202.407821,41.4441341 C204.41528,40.6452474 206.668516,40.2458101 209.167598,40.2458101 C211.666679,40.2458101 213.930157,40.6452474 215.958101,41.4441341 C217.986044,42.2430208 219.716939,43.3696389 221.150838,44.8240223 C222.584737,46.2784058 223.690871,48.0400269 224.469274,50.1089385 C225.247676,52.1778502 225.636872,54.4822964 225.636872,57.0223464 C225.636872,59.5623963 225.247676,61.8566006 224.469274,63.9050279 C223.690871,65.9534553 222.584737,67.7048344 221.150838,69.1592179 C219.716939,70.6136013 217.986044,71.7299775 215.958101,72.5083799 C213.930157,73.2867823 211.666679,73.6759777 209.167598,73.6759777 C206.668516,73.6759777 204.41528,73.2867823 202.407821,72.5083799 C200.400362,71.7299775 198.679709,70.6136013 197.24581,69.1592179 C195.811911,67.7048344 194.705777,65.9534553 193.927374,63.9050279 C193.148972,61.8566006 192.759777,59.5623963 192.759777,57.0223464 Z M228.986034,41.1061453 L237.282123,41.1061453 L237.282123,47.0055866 L237.405028,47.0055866 C237.814713,46.0223415 238.367781,45.1108049 239.064246,44.2709497 C239.760711,43.4310945 240.559586,42.7141557 241.460894,42.1201117 C242.362202,41.5260678 243.324948,41.0651785 244.349162,40.7374302 C245.373376,40.4096818 246.438542,40.2458101 247.544693,40.2458101 C248.118252,40.2458101 248.753255,40.3482299 249.449721,40.5530726 L249.449721,48.6648045 C249.040035,48.5828674 248.54842,48.5111735 247.97486,48.4497207 C247.401301,48.3882678 246.848234,48.3575419 246.315642,48.3575419 C244.717869,48.3575419 243.365927,48.6238335 242.259777,49.1564246 C241.153626,49.6890157 240.262573,50.4161965 239.586592,51.3379888 C238.910611,52.2597811 238.429238,53.3351894 238.142458,54.5642458 C237.855678,55.7933022 237.712291,57.1247601 237.712291,58.5586592 L237.712291,72.877095 L228.986034,72.877095 L228.986034,41.1061453 Z M269.329609,76.8100559 C268.387332,79.3910744 267.076358,81.2346313 265.396648,82.3407821 C263.716938,83.4469329 261.381765,84 258.391061,84 C257.489753,84 256.598701,83.9692741 255.717877,83.9078212 C254.837053,83.8463684 253.946001,83.7746745 253.044693,83.6927374 L253.044693,76.5027933 C253.864064,76.5847304 254.703906,76.6666663 255.564246,76.7486034 C256.424585,76.8305404 257.284912,76.8510244 258.145251,76.8100559 C259.292371,76.6871502 260.142455,76.236503 260.695531,75.4581006 C261.248606,74.6796982 261.52514,73.8193716 261.52514,72.877095 C261.52514,72.1806297 261.402236,71.5251427 261.156425,70.9106145 L250.03352,41.1061453 L259.312849,41.1061453 L266.502793,62.8603352 L266.625698,62.8603352 L273.569832,41.1061453 L282.603352,41.1061453 L269.329609,76.8100559 Z" id="faktory-copy" fill="#666666"></path>
                <g id="Group-Copy-2">
                    <path d="M57.2661615,30.0690504 L75,40 L75,73.1632653 L54.1666667,74.829932 L0,73.1632653 L0,40 L26.0257711,34.3944493 L27.0833333,6.19279063 C27.6599675,5.39759688 29.0488564,5 31.25,5 C33.4511436,5 34.8400325,5.39759688 35.4166667,6.19279063 L36.3905136,32.1620432 L46.0668172,30.0779163 L47.2222222,1.19279063 C47.8372987,0.397596877 49.3187802,8.55408255e-14 51.6666667,0 C54.0145532,-8.42124724e-14 55.4960346,0.397596877 56.1111111,1.19279063 L57.2661615,30.0690504 Z" id="Combined-Shape-Copy-2" fill="#000000"></path>
                    <g id="Group-Copy" transform="translate(6.666667, 39.166667)" fill="#F8AC3E">
                        <path d="M30.0833333,5.53718887 C30.4864291,2.46703395 32.2017069,0.678542891 35.2291667,0.171715691 C38.2566265,-0.335111509 39.9719043,0.953649448 40.375,4.03799856 L40.375,27.57126 L30.0833333,27.7094133 L30.0833333,5.53718887 Z" id="Rectangle-3-Copy-5"></path>
                        <path d="M0,9.84123896 C2.9297552e-16,7.48045038 1.31944444,6.06435033 3.95833333,5.59293884 C6.59722222,5.12152734 7.91666667,6.173209 7.91666667,8.74798382 L7.91666667,27.9873669 L0,28.1162196 L0,9.84123896 Z" id="Rectangle-3-Copy-6"></path>
                        <path d="M14.25,7.85045071 C14.4430215,5.15361255 15.8944104,3.57190341 18.6041667,3.1053233 C21.3139229,2.63874319 22.7653118,3.78993726 22.9583333,6.5589055 L22.9583333,27.7966456 L14.25,27.9088722 L14.25,7.85045071 Z" id="Rectangle-3-Copy-7"></path>
                    </g>
                </g>
            </g>
        </g>
    </g>
</svg>
